svg/application_edit.svg

<svg xmlns="http://www.w3.org/2000/svg" viewBox="0 0 24 24"><path d="m11 20.1 8.2-8.2c.5-.5 1.1-.8 1.8-.8s1.3.3 1.8.8l.2.2V4c0-1.1-.9-2-2-2H3c-1.1 0-2 .9-2 2v16c0 1.1.9 2 2 2h8zM3 4h18v3H3zm18 9.1c-.1 0-.3.1-.4.2l-1 1 2.1 2.1 1-1c.2-.2.2-.6 0-.8l-1.3-1.3c-.1-.1-.2-.2-.4-.2m-1.9 1.8-6.1 6V23h2.1l6.1-6.1z"/></svg>

<svg xmlns="http://www.w3.org/2000/svg" id="mdi-application-edit" viewBox="0 0 24 24"><path d="M11 20.1L19.2 11.9C19.7 11.4 20.3 11.1 21 11.1C21.7 11.1 22.3 11.4 22.8 11.9L23 12.1V4C23 2.9 22.1 2 21 2H3C1.9 2 1 2.9 1 4V20C1 21.1 1.9 22 3 22H11V20.1M3 4H21V7H3V4M21 13.1C20.9 13.1 20.7 13.2 20.6 13.3L19.6 14.3L21.7 16.4L22.7 15.4C22.9 15.2 22.9 14.8 22.7 14.6L21.4 13.3C21.3 13.2 21.2 13.1 21 13.1M19.1 14.9L13 20.9V23H15.1L21.2 16.9L19.1 14.9Z" /></svg>
